public/images/dev25.svg

<svg width="100" height="100" viewBox="0 0 100 100" fill="none" xmlns="http://www.w3.org/2000/svg">
<path d="M2.51552 77.0713V75.2412H0.864915V77.0614H0V72.6863H0.861614V74.5263H2.51221V72.6863H3.37383V77.0713H2.51552ZM6.47696 77.0713H5.81672L5.7573 76.8397C5.45963 77.023 5.11629 77.1183 4.76693 77.1144C4.16282 77.1144 3.90532 76.7172 3.90532 76.1745C3.90532 75.6317 4.19913 75.3107 4.86267 75.3107H5.65496V74.9797C5.65496 74.6256 5.55262 74.5065 5.02773 74.5065C4.72055 74.5089 4.41432 74.5411 4.1133 74.6025L4.01096 73.9968C4.38765 73.8945 4.77611 73.8422 5.16638 73.8413C6.19966 73.8413 6.48686 74.1954 6.48686 74.9797L6.47696 77.0713ZM5.61204 75.8799H5.05414C4.78674 75.8799 4.72402 75.9494 4.72402 76.191C4.72402 76.4326 4.79995 76.522 5.05414 76.522C5.27145 76.5188 5.48463 76.462 5.67477 76.3565L5.61204 75.8799ZM8.19688 77.1408C7.8116 77.135 7.42915 77.0737 7.06127 76.9588L7.17351 76.3532C7.49614 76.4428 7.8291 76.4895 8.16387 76.4922C8.527 76.4922 8.58642 76.4161 8.58642 76.1612C8.58642 75.9064 8.58642 75.8667 8.00871 75.7475C7.20652 75.5589 7.1471 75.3669 7.1471 74.7547C7.1471 74.1424 7.44091 73.838 8.37845 73.838C8.71171 73.8386 9.04387 73.8763 9.36881 73.9505L9.29288 74.5793C8.99421 74.5245 8.69184 74.4924 8.38835 74.4833C8.02522 74.4833 7.9658 74.5594 7.9658 74.758C7.9658 74.9566 7.9658 75.0327 8.43127 75.1386C9.3523 75.3703 9.43814 75.4927 9.43814 76.1314C9.43814 76.7702 9.21365 77.1077 8.22329 77.1077L8.19688 77.1408ZM11.9702 77.0713V74.8606C11.9702 74.6885 11.8942 74.6091 11.7028 74.6091C11.4009 74.6417 11.1083 74.7327 10.8411 74.8771V77.0713H9.98944V72.6234L10.851 72.7458V74.1325C11.2273 73.9489 11.6378 73.8463 12.056 73.8313C12.5974 73.8313 12.7955 74.202 12.7955 74.7646V77.0614L11.9702 77.0713ZM13.4953 73.4706V72.6929H14.3569V73.4706H13.4953ZM13.4953 77.0779V73.9008H14.3569V77.068L13.4953 77.0779ZM14.9776 73.9439C14.9776 73.1496 15.4595 72.6929 16.5786 72.6929C16.99 72.6936 17.4 72.7424 17.8001 72.8385L17.7043 73.5467C17.3416 73.4651 16.9729 73.4131 16.6017 73.3912C16.0174 73.3912 15.826 73.5898 15.826 74.0531V75.7078C15.826 76.1645 16.0141 76.3697 16.6017 76.3697C16.9717 76.362 17.3404 76.3243 17.7043 76.2572L17.8001 76.9654C17.4 77.0615 16.99 77.1104 16.5786 77.111C15.4595 77.111 14.9776 76.6543 14.9776 75.8601V73.9439ZM19.619 77.1475C18.49 77.1475 18.1896 76.5517 18.1896 75.9031V75.1254C18.1896 74.4635 18.49 73.881 19.619 73.881C20.7481 73.881 21.0485 74.4767 21.0485 75.1254V75.9296C21.0485 76.5517 20.7481 77.1475 19.619 77.1475ZM19.619 74.5561C19.18 74.5561 19.0083 74.7448 19.0083 75.0989V75.9627C19.0083 76.3168 19.18 76.5054 19.619 76.5054C20.0581 76.5054 20.2298 76.3168 20.2298 75.9627V75.0923C20.2298 74.705 20.0581 74.5131 19.619 74.5131V74.5561ZM23.3659 74.6091C23.0677 74.7396 22.7797 74.8922 22.5043 75.0658V77.111H21.6427V73.9008H22.392V74.2318C22.6605 74.0576 22.95 73.9186 23.2537 73.8181L23.3659 74.6091ZM26.7001 75.9825C26.7228 76.1319 26.7106 76.2845 26.6644 76.4283C26.6183 76.5721 26.5395 76.7033 26.4342 76.8114C26.3289 76.9195 26.2 77.0016 26.0577 77.0513C25.9154 77.101 25.7635 77.1169 25.614 77.0978C25.3245 77.0924 25.0361 77.0602 24.7524 77.0018V78.2958L23.8908 78.4183V73.9008H24.551L24.627 74.1689C24.9312 73.9511 25.2963 73.8352 25.6701 73.838C26.3304 73.838 26.6869 74.2186 26.6869 74.9334L26.7001 75.9825ZM24.7359 76.3366C24.9768 76.3891 25.2223 76.4179 25.4688 76.4227C25.7626 76.4227 25.8814 76.2837 25.8814 75.9991V74.9301C25.8814 74.672 25.7791 74.523 25.4754 74.523C25.206 74.5318 24.9475 74.6322 24.7425 74.8076L24.7359 76.3366Z" fill="black"/>
<path d="M5.02113 83.6837H0V80.6787H13.4425V83.6837H8.42136V98.7055H5.02113V83.6837Z" fill="black"/>
<path d="M16.5423 96.2631C17.9069 96.2577 19.2631 96.0491 20.5665 95.6442L21.0848 98.1296C19.5375 98.6979 17.903 98.9903 16.2551 98.9934C12.122 98.9934 10.6926 97.0673 10.6926 93.9067V90.4516C10.6926 87.6617 11.9338 85.2722 16.1429 85.2722C20.3519 85.2722 21.3093 87.7312 21.3093 90.5674V93.3805H13.9872V94.0424C13.9872 95.6442 14.5451 96.2631 16.5423 96.2631ZM13.9608 90.713H18.1566V90.0511C18.1566 88.8068 17.777 87.943 16.1594 87.943C14.5418 87.943 13.9707 88.8068 13.9707 90.0511L13.9608 90.713Z" fill="black"/>
<path d="M30.0971 88.2872C28.902 88.8401 27.7509 89.4841 26.6539 90.2133V98.7088H23.3197V85.5238H26.1026L26.3172 86.9832C27.3846 86.2588 28.5422 85.678 29.7603 85.2557L30.0971 88.2872Z" fill="black"/>
<path d="M38.1421 88.2872C36.947 88.8401 35.7959 89.4841 34.6989 90.2133V98.7088H31.3614V85.5238H34.1443L34.3589 86.9832C35.4263 86.2588 36.5839 85.678 37.8021 85.2557L38.1421 88.2872Z" fill="black"/>
<path d="M49.1483 98.6988H46.4512L46.2102 97.8351C45.0468 98.5934 43.6893 98.998 42.3016 99C39.8983 99 38.8585 97.3452 38.8585 95.0816C38.8585 92.4042 40.0205 91.3782 42.6912 91.3782H45.8504V89.9982C45.8504 88.5387 45.4444 88.0125 43.3448 88.0125C42.1239 88.0269 40.9074 88.1632 39.7135 88.4196L39.2843 85.911C40.7511 85.5044 42.2653 85.2952 43.7872 85.2888C47.9203 85.2888 49.1351 86.7483 49.1351 90.0544L49.1483 98.6988ZM45.8471 93.7181H43.4174C42.3412 93.7181 42.0408 94.0126 42.0408 95.0121C42.0408 96.0115 42.3346 96.3359 43.3613 96.3359C44.2301 96.3277 45.0828 96.1001 45.8405 95.674L45.8471 93.7181Z" fill="black"/>
<path d="M59.2764 82.5188C58.6566 82.3852 58.0252 82.3132 57.3914 82.3036C56.1006 82.3036 55.9092 82.8729 55.9092 83.8757V85.5304H59.25L59.0618 88.1217H55.9026V98.6724H52.6014V88.1482H50.5084V85.5569H52.6113V83.6837C52.6113 80.9468 53.8756 79.5998 56.7972 79.5998C57.7543 79.5958 58.7074 79.7238 59.6296 79.9804L59.2764 82.5188Z" fill="black"/>
<path d="M65.6939 98.9735C61.1911 98.9735 59.9762 96.4881 59.9762 93.7942V90.4615C59.9762 87.7577 61.1911 85.2822 65.6939 85.2822C70.1967 85.2822 71.4215 87.7676 71.4215 90.4615V93.7942C71.4182 96.4782 70.2034 98.9735 65.6939 98.9735ZM65.6939 88.0687C63.9707 88.0687 63.2642 88.8531 63.2642 90.3391V93.8901C63.2642 95.3761 63.9245 96.1604 65.6939 96.1604C67.4634 96.1604 68.1236 95.3761 68.1236 93.8901V90.349C68.1236 88.8564 67.4435 88.0687 65.6939 88.0687Z" fill="black"/>
<path d="M79.8891 88.2872C78.694 88.8401 77.5429 89.4841 76.4459 90.2133V98.7088H73.1216V85.5238H75.9045L76.1191 86.9832C77.1854 86.2591 78.3419 85.6783 79.559 85.2557L79.8891 88.2872Z" fill="black"/>
<path d="M88.9344 98.6988V89.5018C88.9344 88.8035 88.6406 88.4494 87.8846 88.4494C86.6739 88.5857 85.5029 88.965 84.4414 89.5647V98.7088H81.17V85.5238H83.6756L84.0057 86.6391C85.6448 85.817 87.4371 85.3469 89.2678 85.259C89.7748 85.2124 90.2838 85.3221 90.7269 85.5735C91.1699 85.8248 91.5259 86.2058 91.747 86.6655C93.3874 85.8244 95.1884 85.3448 97.0289 85.259C99.2176 85.259 100 86.8045 100 89.1543V98.7021H96.7252V89.5018C96.7252 88.8035 96.4314 88.4494 95.6754 88.4494C94.4625 88.5755 93.2895 88.9555 92.2323 89.5647V98.7088L88.9344 98.6988Z" fill="black"/>
<path d="M40.8887 11.7752L59.1113 22.3258V43.4271L40.8887 32.8764V11.7752Z" fill="#5C4EE5"/>
<path d="M61.1086 22.3258V43.4271L79.3411 32.8764V11.7752L61.1086 22.3258Z" fill="#4040B2"/>
<path d="M20.6688 0V21.1013L38.8915 31.6519V10.5506L20.6688 0Z" fill="#5C4EE5"/>
<path d="M40.8887 56.2811L59.1113 66.8318V45.8794V45.7404L40.8887 35.1898V56.2811Z" fill="#5C4EE5"/>
</svg>

<svg xmlns="http://www.w3.org/2000/svg" width="100" height="100" fill="none"><path fill="#000" d="M2.516 77.071v-1.83H.865v1.82H0v-4.375h.862v1.84h1.65v-1.84h.862v4.385zm3.961 0h-.66l-.06-.231a1.85 1.85 0 0 1-.99.274c-.604 0-.862-.397-.862-.94s.294-.863.958-.863h.792v-.331c0-.354-.102-.474-.627-.474a4.8 4.8 0 0 0-.915.097l-.102-.606a4.5 4.5 0 0 1 1.155-.156c1.034 0 1.32.354 1.32 1.139zm-.865-1.191h-.558c-.267 0-.33.07-.33.311 0 .242.076.331.33.331.217-.003.43-.06.62-.166zm2.585 1.26a4 4 0 0 1-1.136-.181l.113-.606c.322.09.655.137.99.14.363 0 .422-.077.422-.332s0-.294-.577-.413c-.802-.19-.862-.381-.862-.993 0-.613.294-.917 1.231-.917q.503 0 .99.113l-.075.628a6 6 0 0 0-.905-.096c-.363 0-.422.076-.422.275s0 .275.465.38c.921.232 1.007.355 1.007.993 0 .64-.224.977-1.215.977zm3.773-.069v-2.21c0-.172-.076-.252-.267-.252a2.3 2.3 0 0 0-.862.268v2.194H9.99v-4.448l.862.123v1.386a3 3 0 0 1 1.205-.3c.541 0 .74.37.74.933v2.296zm1.525-3.6v-.778h.862v.778zm0 3.607V73.9h.862v3.167zm1.483-3.134c0-.794.482-1.251 1.6-1.251.412 0 .822.05 1.222.145l-.096.709a7 7 0 0 0-1.102-.156c-.585 0-.776.199-.776.662v1.655c0 .457.188.662.776.662q.556-.012 1.102-.113l.096.708c-.4.096-.81.145-1.221.146-1.12 0-1.601-.457-1.601-1.25zm4.641 3.203c-1.129 0-1.43-.595-1.43-1.244v-.778c0-.662.301-1.244 1.43-1.244s1.43.596 1.43 1.244v.805c0 .622-.3 1.217-1.43 1.217m0-2.59c-.439 0-.61.188-.61.542v.864c0 .354.171.542.61.542.44 0 .61-.188.61-.542v-.87c0-.388-.17-.58-.61-.58zm3.747.052a6.5 6.5 0 0 0-.862.457v2.045h-.861v-3.21h.749v.33q.404-.26.862-.413zm3.334 1.374a.977.977 0 0 1-1.086 1.115 4.7 4.7 0 0 1-.862-.096v1.294l-.861.122v-4.517h.66l.076.268a1.77 1.77 0 0 1 1.043-.331c.66 0 1.017.38 1.017 1.095zm-1.964.354q.361.078.733.086c.294 0 .412-.14.412-.424V74.93c0-.258-.102-.407-.406-.407-.269.009-.527.11-.733.285zM5.021 83.684H0v-3.005h13.443v3.005H8.42v15.022h-3.4z"/><path fill="#000" d="M16.542 96.263a13.8 13.8 0 0 0 4.024-.619l.519 2.486c-1.547.568-3.182.86-4.83.863-4.133 0-5.562-1.926-5.562-5.086v-3.455c0-2.79 1.24-5.18 5.45-5.18 4.209 0 5.166 2.46 5.166 5.295v2.814h-7.322v.661c0 1.602.558 2.221 2.555 2.221m-2.581-5.55h4.196v-.662c0-1.244-.38-2.108-1.998-2.108s-2.188.864-2.188 2.108zM30.097 88.287a26 26 0 0 0-3.443 1.926v8.496H23.32V85.524h2.783l.214 1.46a14.7 14.7 0 0 1 3.443-1.728zM38.142 88.287a26 26 0 0 0-3.443 1.926v8.496H31.36V85.524h2.783l.215 1.46a14.7 14.7 0 0 1 3.443-1.728zM49.148 98.699h-2.697l-.24-.864A7.2 7.2 0 0 1 42.3 99c-2.403 0-3.443-1.655-3.443-3.918 0-2.678 1.163-3.704 3.833-3.704h3.16v-1.38c0-1.46-.407-1.986-2.506-1.986-1.221.015-2.438.151-3.631.408l-.43-2.509a17.1 17.1 0 0 1 4.503-.622c4.133 0 5.348 1.46 5.348 4.765zm-3.3-4.98h-2.43c-1.077 0-1.377.294-1.377 1.293 0 1 .294 1.324 1.32 1.324a5.16 5.16 0 0 0 2.48-.662zM59.276 82.519a9.6 9.6 0 0 0-1.885-.215c-1.29 0-1.482.569-1.482 1.572v1.654h3.341l-.188 2.592h-3.16v10.55h-3.3V88.148h-2.094v-2.591h2.103v-1.873c0-2.737 1.265-4.084 4.186-4.084.957-.004 1.91.124 2.833.38zM65.694 98.974c-4.503 0-5.718-2.486-5.718-5.18v-3.332c0-2.704 1.215-5.18 5.718-5.18s5.727 2.486 5.727 5.18v3.332c-.003 2.684-1.218 5.18-5.727 5.18m0-10.905c-1.723 0-2.43.784-2.43 2.27v3.551c0 1.486.66 2.27 2.43 2.27s2.43-.784 2.43-2.27V90.35c0-1.493-.68-2.28-2.43-2.28M79.89 88.287a26 26 0 0 0-3.444 1.926v8.496h-3.324V85.524h2.782l.215 1.46a14.7 14.7 0 0 1 3.44-1.728zM88.934 98.699v-9.197c0-.698-.293-1.053-1.05-1.053a9.1 9.1 0 0 0-3.443 1.116v9.144H81.17V85.524h2.506l.33 1.115a13.1 13.1 0 0 1 5.262-1.38 2.49 2.49 0 0 1 2.479 1.406 12.9 12.9 0 0 1 5.282-1.406c2.189 0 2.971 1.546 2.971 3.895v9.548h-3.275v-9.2c0-.698-.294-1.053-1.05-1.053a8.7 8.7 0 0 0-3.443 1.116v9.144z"/><path fill="#5C4EE5" d="m40.889 11.775 18.222 10.55v21.102L40.89 32.877z"/><path fill="#4040B2" d="M61.109 22.326v21.101l18.232-10.55V11.774z"/><path fill="#5C4EE5" d="M20.669 0v21.101l18.223 10.55v-21.1zM40.889 56.281l18.222 10.55V45.74L40.89 35.19z"/></svg>
